icon-themes/breeze_svg/cmd/lc_printpreview.svg

<svg viewBox="0 0 24 24" xmlns="http://www.w3.org/2000/svg"><path d="m5 4v16h1 7v-1h-7v-14h8v4h4v5h1v-6l-4-4h-9zm9 8c-1.662003 0-3 1.338-3 3s1.337997 3 3 3c.649392 0 1.260026-.2145 1.75-.5625l2.53125 2.5625.71875-.71875-2.5625-2.53125c.348055-.4899.5625-1.1006.5625-1.75 0-1.662-1.337997-3-3-3zm0 1c1.108003 0 2 .892 2 2s-.891997 2-2 2-2-.892-2-2 .891997-2 2-2z" fill="#4d4d4d"/></svg>

<svg xmlns="http://www.w3.org/2000/svg" viewBox="0 0 24 24">
 <path 
     style="fill:#4d4d4d" 
     d="M 5 4 L 5 20 L 6 20 L 13 20 L 13 19 L 6 19 L 6 5 L 14 5 L 14 9 L 18 9 L 18 14 L 19 14 L 19 8 L 15 4 L 6 4 L 5 4 z M 14 12 C 12.337997 12 11 13.338 11 15 C 11 16.662 12.337997 18 14 18 C 14.649392 18 15.260026 17.7855 15.75 17.4375 L 18.28125 20 L 19 19.28125 L 16.4375 16.75 C 16.785555 16.2601 17 15.6494 17 15 C 17 13.338 15.662003 12 14 12 z M 14 13 C 15.108003 13 16 13.892 16 15 C 16 16.108 15.108003 17 14 17 C 12.891997 17 12 16.108 12 15 C 12 13.892 12.891997 13 14 13 z "
     />
 </svg>
